incomeartour/img/countries/europe/belgium.svg

<svg width="26" height="25" viewBox="0 0 26 25" fill="none" xmlns="http://www.w3.org/2000/svg">
<g clip-path="url(#clip0_192:4988)">
<path d="M8.24046 20.6728H0.490147C0.256688 20.6728 0.0673828 20.4802 0.0673828 20.2426V4.75684C0.0673828 4.51929 0.256688 4.32666 0.490147 4.32666H8.24046V20.6728Z" fill="#464655"/>
<path d="M16.4133 4.32666H8.24023V20.6728H16.4133V4.32666Z" fill="#FFE15A"/>
<path d="M24.6448 20.6728H16.8945V4.32666H24.6448C24.8783 4.32666 25.0676 4.51929 25.0676 4.75684V20.2427C25.0676 20.4803 24.8783 20.6728 24.6448 20.6728Z" fill="#FF4B55"/>
</g>
<defs>
<clipPath id="clip0_192:4988">
<rect width="25" height="25" fill="white" transform="translate(0.0673828 -0.000244141)"/>
</clipPath>
</defs>
</svg>

<svg width="26" height="25" fill="none" xmlns="http://www.w3.org/2000/svg"><g clip-path="url(#clip0_192:4988)"><path d="M8.24 20.673H.49a.427.427 0 01-.423-.43V4.757c0-.238.19-.43.423-.43h7.75v16.346z" fill="#464655"/><path d="M16.413 4.327H8.24v16.346h8.173V4.327z" fill="#FFE15A"/><path d="M24.645 20.673h-7.75V4.327h7.75c.233 0 .423.192.423.43v15.486c0 .237-.19.43-.423.43z" fill="#FF4B55"/></g><defs><clipPath id="clip0_192:4988"><path fill="#fff" transform="translate(.067)" d="M0 0h25v25H0z"/></clipPath></defs></svg>
